storage/app/icons/phosphoricons/bold/hard-drives-bold.svg

<svg xmlns="http://www.w3.org/2000/svg" fill="currentColor" viewBox="0 0 256 256"><path d="M208 36H48a20 20 0 0 0-20 20v144a20 20 0 0 0 20 20h160a20 20 0 0 0 20-20V56a20 20 0 0 0-20-20m-4 24v56H52V60ZM52 196v-56h152v56ZM160 88a16 16 0 1 1 16 16 16 16 0 0 1-16-16m32 80a16 16 0 1 1-16-16 16 16 0 0 1 16 16"/></svg>

<svg xmlns="http://www.w3.org/2000/svg" viewBox="0 0 256 256" fill="currentColor"><path d="M208,36H48A20,20,0,0,0,28,56V200a20,20,0,0,0,20,20H208a20,20,0,0,0,20-20V56A20,20,0,0,0,208,36Zm-4,24v56H52V60ZM52,196V140H204v56ZM160,88a16,16,0,1,1,16,16A16,16,0,0,1,160,88Zm32,80a16,16,0,1,1-16-16A16,16,0,0,1,192,168Z"/></svg>
